X:8
T:South Wind
Z: id:dc-waltz-5
M:3/4
L:1/8
K:G Major
c2|B3 A G2|B3 c d2|A6|A4 c2|B3 A G2|E3 D E2|G6|G4:|!
d2|g4 g2|g3 f e2|d4 d2|d4 c2|B3 A G2|B3 c d2|A6|A4 d2|!
g4 g2|g3 f e2|d4 d2|d4 c2|B3 A G2|Ac3 F2|G6|G4|]!

